assets/img/Jeynix.svg

<svg width="78" height="24" viewBox="0 0 78 24" fill="none" xmlns="http://www.w3.org/2000/svg">
<path d="M4.004 18.26C2.82533 18.26 1.65533 18.1733 0.494 18V15.036C1.72467 15.2613 2.79067 15.374 3.692 15.374C5.06133 15.374 5.746 14.7587 5.746 13.528V1.126H9.802V13.398C9.802 15.166 9.32533 16.4227 8.372 17.168C7.41867 17.896 5.96267 18.26 4.004 18.26ZM19.5601 18.26C15.1055 18.26 12.8781 16.8993 12.8781 14.178V9.654C12.8781 8.07667 13.3808 6.93267 14.3861 6.222C15.4088 5.51133 16.9775 5.156 19.0921 5.156C21.0855 5.156 22.5415 5.50267 23.4601 6.196C24.3961 6.872 24.8641 8.02467 24.8641 9.654V12.722H16.7001V13.866C16.7001 14.594 16.9601 15.114 17.4801 15.426C18.0001 15.738 18.9361 15.894 20.2881 15.894C21.5361 15.894 22.9401 15.712 24.5001 15.348V17.766C22.9575 18.0953 21.3108 18.26 19.5601 18.26ZM21.2501 10.564V8.744C21.2501 8.328 21.0768 8.016 20.7301 7.808C20.4008 7.6 19.8375 7.496 19.0401 7.496C18.1215 7.496 17.5061 7.6 17.1941 7.808C16.8648 8.03333 16.7001 8.34533 16.7001 8.744V10.564H21.2501ZM31.3276 17.896L26.3096 5.416H30.4436L33.2776 14.308L35.8516 5.416H39.7776L32.8876 23.408H29.0396L31.3276 17.896Z" fill="#E2FF00"/>
<path d="M41.6542 5.416H45.3982V6.95C45.6929 5.754 47.0362 5.156 49.4282 5.156C51.0402 5.156 52.1669 5.45067 52.8082 6.04C53.4669 6.612 53.7962 7.522 53.7962 8.77V18H50.0002V9.264C50.0002 8.77867 49.9482 8.41467 49.8442 8.172C49.7576 7.92933 49.5669 7.756 49.2722 7.652C48.9949 7.548 48.5616 7.496 47.9722 7.496C47.2269 7.496 46.6809 7.548 46.3342 7.652C45.9876 7.73867 45.7536 7.90333 45.6322 8.146C45.5109 8.38867 45.4502 8.76133 45.4502 9.264V18H41.6542V5.416ZM57.2211 0.865999H61.0171V3.934H57.2211V0.865999ZM57.2211 5.416H61.0171V18H57.2211V5.416ZM67.991 11.552L63.311 5.416H67.705L70.175 9.03L72.671 5.416H77.065L72.359 11.552L77.325 18H72.931L70.175 14.048L67.445 18H63.051L67.991 11.552Z" fill="white"/>
</svg>

<svg xmlns="http://www.w3.org/2000/svg" width="78" height="24" fill="none" xmlns:v="https://vecta.io/nano"><path d="M4.004 18.26A23.75 23.75 0 0 1 .494 18v-2.964c1.231.225 2.297.338 3.198.338 1.369 0 2.054-.615 2.054-1.846V1.126h4.056v12.272c0 1.768-.477 3.025-1.43 3.77-.953.728-2.409 1.092-4.368 1.092zm15.556 0c-4.455 0-6.682-1.361-6.682-4.082V9.654c0-1.577.503-2.721 1.508-3.432 1.023-.711 2.591-1.066 4.706-1.066 1.993 0 3.449.347 4.368 1.04.936.676 1.404 1.829 1.404 3.458v3.068H16.7v1.144c0 .728.26 1.248.78 1.56s1.456.468 2.808.468c1.248 0 2.652-.182 4.212-.546v2.418c-1.543.329-3.189.494-4.94.494zm1.69-7.696v-1.82a1.02 1.02 0 0 0-.52-.936c-.329-.208-.893-.312-1.69-.312-.919 0-1.534.104-1.846.312a1.07 1.07 0 0 0-.494.936v1.82h4.55zm10.078 7.332L26.31 5.416h4.134l2.834 8.892 2.574-8.892h3.926l-6.89 17.992H29.04l2.288-5.512z" fill="#e2ff00"/><path d="M41.654 5.416h3.744V6.95c.295-1.196 1.638-1.794 4.03-1.794 1.612 0 2.739.295 3.38.884.659.572.988 1.482.988 2.73V18H50V9.264c0-.485-.052-.849-.156-1.092-.087-.243-.277-.416-.572-.52-.277-.104-.711-.156-1.3-.156-.745 0-1.291.052-1.638.156-.347.087-.581.251-.702.494s-.182.615-.182 1.118V18h-3.796V5.416zM57.221.866h3.796v3.068h-3.796V.866zm0 4.55h3.796V18h-3.796V5.416zm10.77 6.136l-4.68-6.136h4.394l2.47 3.614 2.496-3.614h4.394l-4.706 6.136L77.325 18h-4.394l-2.756-3.952L67.445 18h-4.394l4.94-6.448z" fill="#fff"/></svg>
